X: 1
T: Calum's Road   [D]
C: Donald Shaw
%D:1987
Z: 2009 John Chambers <jc:trillian.mit.edu>
N: Written in tribute to Malcolm "Calum" MacLeod, who single-handedly built
N: a two-mile road from his croft on the Isle of Raasay to the nearby town
N: of Fladda when the local council wouldn't pay to have it built.
S: http://www.youtube.com/watch?v=JLRTBs2iC1w 2009-3-26 (Capercaillie)
%: http/www.ibiblio.org/fiddlers/CAIT_CAMER.htm 2009-3-26
M: 4/4
L: 1/8
K: D
[|"D"D2 A>F A4 | "G"B<d d>c "D"B>A F<A \
| "G"B2 d>D "Bm"F2 E<D | "Em"B,<D D>F "A7"E4 |
| "D"D2 A>F A4 | "G"B<d d>c "D"B>A F<A \
| "G"B2 d>D "Bm"F2 E<D | "Em"B,<D "A7"D>E "D"D2 F<A |]
[|"G"B2 d>c "Em"B4 | "A7"A>B A<E "D"F2- F>A \
| "G"B2 d>c "Em"B2- BA/B/ | "Bm"d2 de "D"(3fed (3dcA |
| "G"B2 d>c "Em"B4 | "A7"A>B A<E "D"F2- F>A \
| "G"B2 d>D "Bm"F2 E<D | "Em"B,<D "A7"D>E "D"D2 |]
